X:3134
T:Cobblers Jig, The
S:Leeds session
R:Other
O:England
M:2/4
L:1/8
K:Bm
B,D B,D|E>D EF|E>D EG|B>A Bd|\
B,D B,D|E>D EF|E>D EG|B,2 B,2::
B,C DE|F>E DF|E>D EF|F>D EB,|\
B,C DE|F<E DF|EF GF|(3EFG F2:|


